富士柯达胶片感预设/F - Agfa Vista 400 Warm +.lrtemplate
s = {
	id = "3DCC2511-7E98-4AD0-9BF4-F781CB53E5F6",
	internalName = "Agfa Vista 400 Warm +",
	title = "F - Agfa Vista 400 Warm +",
	type = "Develop",
	value = {
		settings = {
			Blacks2012 = 5,
			BlueHue = -10,
			BlueSaturation = -5,
			CameraProfile = "Agfa Vista 400 - F",
			Clarity2012 = -10,
			Contrast2012 = 0,
			ConvertToGrayscale = false,
			EnableCalibration = true,
			EnableColorAdjustments = true,
			EnableDetail = true,
			EnableEffects = true,
			EnableSplitToning = true,
			GrainAmount = 30,
			GrainFrequency = 85,
			GrainSize = 35,
			GreenHue = 45,
			GreenSaturation = -5,
			Highlights2012 = -40,
			HueAdjustmentAqua = 10,
			HueAdjustmentBlue = -5,
			HueAdjustmentGreen = 5,
			HueAdjustmentMagenta = 30,
			HueAdjustmentOrange = 0,
			HueAdjustmentPurple = 20,
			HueAdjustmentRed = 10,
			HueAdjustmentYellow = 10,
			LuminanceAdjustmentAqua = 15,
			LuminanceAdjustmentBlue = -25,
			LuminanceAdjustmentGreen = 20,
			LuminanceAdjustmentMagenta = 0,
			LuminanceAdjustmentOrange = 2,
			LuminanceAdjustmentPurple = -15,
			LuminanceAdjustmentRed = -15,
			LuminanceAdjustmentYellow = 10,
			ParametricDarks = 0,
			ParametricHighlightSplit = 75,
			ParametricHighlights = 0,
			ParametricLights = 0,
			ParametricMidtoneSplit = 48,
			ParametricShadowSplit = 20,
			ParametricShadows = 0,
			ProcessVersion = "6.7",
			RedHue = 20,
			RedSaturation = 34,
			Saturation = 0,
			SaturationAdjustmentAqua = -35,
			SaturationAdjustmentBlue = -25,
			SaturationAdjustmentGreen = -30,
			SaturationAdjustmentMagenta = -30,
			SaturationAdjustmentOrange = -15,
			SaturationAdjustmentPurple = -45,
			SaturationAdjustmentRed = -15,
			SaturationAdjustmentYellow = -5,
			ShadowTint = -4,
			Shadows2012 = 30,
			SharpenDetail = 25,
			SharpenEdgeMasking = 0,
			SharpenRadius = 1,
			Sharpness = 0,
			SplitToningBalance = 0,
			SplitToningHighlightHue = 40,
			SplitToningHighlightSaturation = 5,
			SplitToningShadowHue = 0,
			SplitToningShadowSaturation = 0,
			ToneCurveName2012 = "Custom",
			ToneCurvePV2012 = {
				0,
				31,
				76,
				75,
				133,
				133,
				188,
				189,
				255,
				245,
			},
			ToneCurvePV2012Blue = {
				0,
				0,
				32,
				10,
				121,
				118,
				172,
				190,
				255,
				255,
			},
			ToneCurvePV2012Green = {
				0,
				0,
				33,
				13,
				80,
				65,
				114,
				120,
				178,
				200,
				255,
				255,
			},
			ToneCurvePV2012Red = {
				0,
				0,
				31,
				14,
				113,
				122,
				172,
				200,
				255,
				255,
			},
			Vibrance = 0,
			Whites2012 = -20,
		},
		uuid = "0411F710-99F7-4F40-BF37-077C5B67E23B",
	},
	version = 0,
}
