富士柯达胶片感预设/F - Kodak Max 800 Alt.lrtemplate
s = {
	id = "75E99C20-5CEC-492C-AC16-3E655AAC7D50",
	internalName = "Kodak Max 800",
	title = "F - Kodak Max 800 Alt",
	type = "Develop",
	value = {
		settings = {
			Blacks2012 = 0,
			BlueHue = -10,
			BlueSaturation = 0,
			CameraProfile = "Kodak Max 800 - F",
			Clarity2012 = -5,
			Contrast2012 = 0,
			ConvertToGrayscale = false,
			EnableCalibration = true,
			EnableColorAdjustments = true,
			EnableDetail = true,
			EnableEffects = true,
			EnableSplitToning = true,
			GrainAmount = 30,
			GrainFrequency = 85,
			GrainSize = 30,
			GreenHue = 40,
			GreenSaturation = 10,
			Highlights2012 = -40,
			HueAdjustmentAqua = 10,
			HueAdjustmentBlue = -5,
			HueAdjustmentGreen = 0,
			HueAdjustmentMagenta = 20,
			HueAdjustmentOrange = 0,
			HueAdjustmentPurple = 20,
			HueAdjustmentRed = 30,
			HueAdjustmentYellow = 0,
			LuminanceAdjustmentAqua = 10,
			LuminanceAdjustmentBlue = -10,
			LuminanceAdjustmentGreen = 15,
			LuminanceAdjustmentMagenta = 15,
			LuminanceAdjustmentOrange = -15,
			LuminanceAdjustmentPurple = 20,
			LuminanceAdjustmentRed = -5,
			LuminanceAdjustmentYellow = 0,
			ParametricDarks = 0,
			ParametricHighlightSplit = 75,
			ParametricHighlights = 0,
			ParametricLights = 0,
			ParametricMidtoneSplit = 48,
			ParametricShadowSplit = 20,
			ParametricShadows = 0,
			ProcessVersion = "6.7",
			RedHue = 20,
			RedSaturation = 85,
			Saturation = -20,
			SaturationAdjustmentAqua = 0,
			SaturationAdjustmentBlue = -15,
			SaturationAdjustmentGreen = -40,
			SaturationAdjustmentMagenta = -35,
			SaturationAdjustmentOrange = -35,
			SaturationAdjustmentPurple = -35,
			SaturationAdjustmentRed = -30,
			SaturationAdjustmentYellow = -5,
			ShadowTint = -2,
			Shadows2012 = 10,
			SharpenDetail = 25,
			SharpenEdgeMasking = 0,
			SharpenRadius = 1,
			Sharpness = 0,
			SplitToningBalance = 0,
			SplitToningHighlightHue = 0,
			SplitToningHighlightSaturation = 0,
			SplitToningShadowHue = 0,
			SplitToningShadowSaturation = 0,
			ToneCurveName2012 = "Custom",
			ToneCurvePV2012 = {
				0,
				24,
				22,
				30,
				65,
				65,
				146,
				149,
				184,
				189,
				255,
				245,
			},
			ToneCurvePV2012Blue = {
				0,
				0,
				33,
				19,
				86,
				83,
				121,
				135,
				182,
				193,
				255,
				255,
			},
			ToneCurvePV2012Green = {
				0,
				0,
				40,
				20,
				76,
				62,
				112,
				123,
				176,
				200,
				255,
				255,
			},
			ToneCurvePV2012Red = {
				0,
				0,
				31,
				11,
				111,
				120,
				170,
				200,
				200,
				223,
				255,
				255,
			},
			Vibrance = 0,
			Whites2012 = -30,
		},
		uuid = "5A87E42E-4687-433F-894C-707C71DFC09C",
	},
	version = 0,
}
