富士柯达胶片感预设/F - Kodak Ektar 100 +++.lrtemplate
s = {
	id = "0DECCCB7-F9D9-454D-AF7C-7167AF977376",
	internalName = "Kodak Ektar 100 +++",
	title = "F - Kodak Ektar 100 +++",
	type = "Develop",
	value = {
		settings = {
			Blacks2012 = 15,
			BlueHue = -5,
			BlueSaturation = -10,
			CameraProfile = "Kodak Ektar 100 - F",
			Clarity2012 = 0,
			ColorNoiseReduction = 25,
			ColorNoiseReductionDetail = 50,
			ColorNoiseReductionSmoothness = 50,
			Contrast2012 = 0,
			ConvertToGrayscale = false,
			EnableCalibration = true,
			EnableColorAdjustments = true,
			EnableDetail = true,
			EnableEffects = true,
			EnableSplitToning = true,
			GrainAmount = 32,
			GrainFrequency = 45,
			GrainSize = 30,
			GreenHue = 55,
			GreenSaturation = 5,
			Highlights2012 = -35,
			HueAdjustmentAqua = 0,
			HueAdjustmentBlue = 0,
			HueAdjustmentGreen = 2,
			HueAdjustmentMagenta = 30,
			HueAdjustmentOrange = 0,
			HueAdjustmentPurple = 20,
			HueAdjustmentRed = 20,
			HueAdjustmentYellow = 0,
			LuminanceAdjustmentAqua = 20,
			LuminanceAdjustmentBlue = 0,
			LuminanceAdjustmentGreen = 0,
			LuminanceAdjustmentMagenta = 25,
			LuminanceAdjustmentOrange = -10,
			LuminanceAdjustmentPurple = 20,
			LuminanceAdjustmentRed = 0,
			LuminanceAdjustmentYellow = 10,
			LuminanceNoiseReductionContrast = 0,
			LuminanceNoiseReductionDetail = 50,
			LuminanceSmoothing = 0,
			ParametricDarks = 0,
			ParametricHighlightSplit = 75,
			ParametricHighlights = 0,
			ParametricLights = 0,
			ParametricMidtoneSplit = 50,
			ParametricShadowSplit = 25,
			ParametricShadows = 0,
			ProcessVersion = "6.7",
			RedHue = 30,
			RedSaturation = 0,
			Saturation = -10,
			SaturationAdjustmentAqua = -20,
			SaturationAdjustmentBlue = -10,
			SaturationAdjustmentGreen = -20,
			SaturationAdjustmentMagenta = -40,
			SaturationAdjustmentOrange = 5,
			SaturationAdjustmentPurple = -40,
			SaturationAdjustmentRed = -10,
			SaturationAdjustmentYellow = 0,
			ShadowTint = 0,
			Shadows2012 = 30,
			SharpenDetail = 25,
			SharpenEdgeMasking = 0,
			SharpenRadius = 1,
			Sharpness = 0,
			SplitToningBalance = 0,
			SplitToningHighlightHue = 0,
			SplitToningHighlightSaturation = 0,
			SplitToningShadowHue = 0,
			SplitToningShadowSaturation = 0,
			ToneCurveName2012 = "Custom",
			ToneCurvePV2012 = {
				0,
				52,
				36,
				55,
				91,
				87,
				135,
				131,
				202,
				201,
				255,
				251,
			},
			ToneCurvePV2012Blue = {
				0,
				0,
				25,
				8,
				87,
				83,
				149,
				170,
				200,
				220,
				255,
				255,
			},
			ToneCurvePV2012Green = {
				0,
				0,
				28,
				12,
				63,
				38,
				92,
				82,
				146,
				163,
				183,
				204,
				255,
				255,
			},
			ToneCurvePV2012Red = {
				0,
				0,
				38,
				8,
				71,
				43,
				98,
				88,
				144,
				166,
				197,
				220,
				255,
				255,
			},
			Vibrance = 0,
			Whites2012 = -30,
		},
		uuid = "579F5F2B-3F1D-47C0-8E58-D1F3CE78819B",
	},
	version = 0,
}
