富士柯达胶片感预设/F - Agfa Vista 400 Contrast +.lrtemplate
s = {
	id = "76E9B535-25BB-4FE9-B78A-02E0E6878E79",
	internalName = "Agfa Vista 400 Contrast +",
	title = "F - Agfa Vista 400 Contrast +",
	type = "Develop",
	value = {
		settings = {
			Blacks2012 = 15,
			BlueHue = -5,
			BlueSaturation = -10,
			CameraProfile = "Agfa Vista 400 - F",
			Clarity2012 = -5,
			Contrast2012 = 0,
			ConvertToGrayscale = false,
			EnableCalibration = true,
			EnableColorAdjustments = true,
			EnableDetail = true,
			EnableEffects = true,
			EnableSplitToning = true,
			GrainAmount = 20,
			GrainFrequency = 85,
			GrainSize = 35,
			GreenHue = 50,
			GreenSaturation = -10,
			Highlights2012 = -40,
			HueAdjustmentAqua = 10,
			HueAdjustmentBlue = -5,
			HueAdjustmentGreen = 5,
			HueAdjustmentMagenta = 30,
			HueAdjustmentOrange = -2,
			HueAdjustmentPurple = 20,
			HueAdjustmentRed = 10,
			HueAdjustmentYellow = 5,
			LuminanceAdjustmentAqua = 15,
			LuminanceAdjustmentBlue = -25,
			LuminanceAdjustmentGreen = 15,
			LuminanceAdjustmentMagenta = 0,
			LuminanceAdjustmentOrange = 0,
			LuminanceAdjustmentPurple = -15,
			LuminanceAdjustmentRed = -15,
			LuminanceAdjustmentYellow = 10,
			ParametricDarks = 0,
			ParametricHighlightSplit = 75,
			ParametricHighlights = 0,
			ParametricLights = 0,
			ParametricMidtoneSplit = 48,
			ParametricShadowSplit = 20,
			ParametricShadows = 0,
			ProcessVersion = "6.7",
			RedHue = 25,
			RedSaturation = 40,
			Saturation = 0,
			SaturationAdjustmentAqua = -35,
			SaturationAdjustmentBlue = -25,
			SaturationAdjustmentGreen = -30,
			SaturationAdjustmentMagenta = -30,
			SaturationAdjustmentOrange = -15,
			SaturationAdjustmentPurple = -45,
			SaturationAdjustmentRed = -20,
			SaturationAdjustmentYellow = -5,
			ShadowTint = -4,
			Shadows2012 = 30,
			SharpenDetail = 25,
			SharpenEdgeMasking = 0,
			SharpenRadius = 1,
			Sharpness = 0,
			SplitToningBalance = 0,
			SplitToningHighlightHue = 0,
			SplitToningHighlightSaturation = 0,
			SplitToningShadowHue = 0,
			SplitToningShadowSaturation = 0,
			ToneCurveName2012 = "Custom",
			ToneCurvePV2012 = {
				0,
				9,
				28,
				21,
				77,
				70,
				133,
				133,
				189,
				191,
				255,
				245,
			},
			ToneCurvePV2012Blue = {
				0,
				0,
				31,
				9,
				79,
				63,
				114,
				120,
				167,
				197,
				255,
				255,
			},
			ToneCurvePV2012Green = {
				0,
				0,
				36,
				9,
				81,
				64,
				114,
				120,
				143,
				167,
				255,
				255,
			},
			ToneCurvePV2012Red = {
				0,
				0,
				36,
				8,
				83,
				62,
				114,
				121,
				172,
				201,
				255,
				255,
			},
			Vibrance = 0,
			Whites2012 = -20,
		},
		uuid = "A2561012-E87A-44D1-84C9-70A2A7F26D12",
	},
	version = 0,
}
