富士柯达胶片感预设/F - Kodak BW400CN.lrtemplate
s = {
	id = "5D899C10-86B4-4E54-8BBA-B663360C6274",
	internalName = "Kodak BW400CN",
	title = "F - Kodak BW400CN",
	type = "Develop",
	value = {
		settings = {
			Blacks2012 = 25,
			BlueHue = 0,
			BlueSaturation = -50,
			CameraProfile = "Kodak BW400CN - F",
			Clarity2012 = -5,
			Contrast2012 = 0,
			ConvertToGrayscale = true,
			EnableCalibration = true,
			EnableDetail = true,
			EnableEffects = true,
			EnableGrayscaleMix = true,
			EnableSplitToning = true,
			GrainAmount = 45,
			GrainFrequency = 60,
			GrainSize = 20,
			GrayMixerAqua = -20,
			GrayMixerBlue = -10,
			GrayMixerGreen = 15,
			GrayMixerMagenta = 5,
			GrayMixerOrange = -25,
			GrayMixerPurple = 16,
			GrayMixerRed = 10,
			GrayMixerYellow = 0,
			GreenHue = 0,
			GreenSaturation = -75,
			Highlights2012 = -25,
			ParametricDarks = 0,
			ParametricHighlightSplit = 75,
			ParametricHighlights = 0,
			ParametricLights = 0,
			ParametricMidtoneSplit = 60,
			ParametricShadowSplit = 14,
			ParametricShadows = 0,
			ProcessVersion = "6.7",
			RedHue = 0,
			RedSaturation = -10,
			ShadowTint = 0,
			Shadows2012 = 15,
			SharpenDetail = 25,
			SharpenEdgeMasking = 0,
			SharpenRadius = 1,
			Sharpness = 25,
			SplitToningBalance = 0,
			SplitToningHighlightHue = 0,
			SplitToningHighlightSaturation = 0,
			SplitToningShadowHue = 0,
			SplitToningShadowSaturation = 0,
			ToneCurveName2012 = "Custom",
			ToneCurvePV2012 = {
				0,
				1,
				31,
				31,
				114,
				117,
				255,
				248,
			},
			ToneCurvePV2012Blue = {
				0,
				0,
				255,
				255,
			},
			ToneCurvePV2012Green = {
				0,
				0,
				255,
				255,
			},
			ToneCurvePV2012Red = {
				0,
				0,
				255,
				255,
			},
			Whites2012 = -20,
		},
		uuid = "0EC61628-E6D8-4453-98AA-FBFC3F19BBD0",
	},
	version = 0,
}
