富士柯达胶片感预设/F - Agfa Vista 800 Warm +.lrtemplate
s = {
	id = "9440A8E7-184B-4FB6-B893-6D38E611E5A1",
	internalName = "Agfa Vista 800 Warm +",
	title = "F - Agfa Vista 800 Warm +",
	type = "Develop",
	value = {
		settings = {
			Blacks2012 = 10,
			BlueHue = -10,
			BlueSaturation = -10,
			CameraProfile = "Agfa Vista 800 - F",
			Clarity2012 = -10,
			Contrast2012 = 0,
			ConvertToGrayscale = false,
			EnableCalibration = true,
			EnableColorAdjustments = true,
			EnableDetail = true,
			EnableEffects = true,
			EnableSplitToning = true,
			GrainAmount = 35,
			GrainFrequency = 85,
			GrainSize = 25,
			GreenHue = 55,
			GreenSaturation = -20,
			Highlights2012 = -40,
			HueAdjustmentAqua = 10,
			HueAdjustmentBlue = -10,
			HueAdjustmentGreen = 0,
			HueAdjustmentMagenta = 0,
			HueAdjustmentOrange = 0,
			HueAdjustmentPurple = 0,
			HueAdjustmentRed = 15,
			HueAdjustmentYellow = 5,
			LuminanceAdjustmentAqua = 15,
			LuminanceAdjustmentBlue = -25,
			LuminanceAdjustmentGreen = 0,
			LuminanceAdjustmentMagenta = 0,
			LuminanceAdjustmentOrange = -5,
			LuminanceAdjustmentPurple = -15,
			LuminanceAdjustmentRed = -25,
			LuminanceAdjustmentYellow = 10,
			ParametricDarks = 0,
			ParametricHighlightSplit = 75,
			ParametricHighlights = 0,
			ParametricLights = 0,
			ParametricMidtoneSplit = 48,
			ParametricShadowSplit = 20,
			ParametricShadows = 0,
			ProcessVersion = "6.7",
			RedHue = 30,
			RedSaturation = 30,
			Saturation = -15,
			SaturationAdjustmentAqua = -35,
			SaturationAdjustmentBlue = -25,
			SaturationAdjustmentGreen = -30,
			SaturationAdjustmentMagenta = -30,
			SaturationAdjustmentOrange = -10,
			SaturationAdjustmentPurple = -45,
			SaturationAdjustmentRed = -20,
			SaturationAdjustmentYellow = -5,
			ShadowTint = -4,
			Shadows2012 = 30,
			SharpenDetail = 25,
			SharpenEdgeMasking = 0,
			SharpenRadius = 1,
			Sharpness = 0,
			SplitToningBalance = 75,
			SplitToningHighlightHue = 0,
			SplitToningHighlightSaturation = 0,
			SplitToningShadowHue = 240,
			SplitToningShadowSaturation = 0,
			ToneCurveName2012 = "Custom",
			ToneCurvePV2012 = {
				0,
				48,
				77,
				76,
				133,
				133,
				189,
				187,
				255,
				245,
			},
			ToneCurvePV2012Blue = {
				0,
				0,
				80,
				49,
				121,
				119,
				174,
				194,
				255,
				255,
			},
			ToneCurvePV2012Green = {
				0,
				0,
				32,
				11,
				114,
				120,
				178,
				200,
				255,
				255,
			},
			ToneCurvePV2012Red = {
				0,
				0,
				30,
				16,
				75,
				64,
				113,
				122,
				174,
				197,
				255,
				255,
			},
			Vibrance = 0,
			Whites2012 = -20,
		},
		uuid = "65F9FF44-5819-49DF-B49C-6D6CA36DF5D6",
	},
	version = 0,
}
