富士柯达胶片感预设/F - Agfa Vista 800 ++.lrtemplate
s = {
	id = "FD51ADFB-A51E-4396-8E30-8EAEE656617F",
	internalName = "Agfa Vista 800 ++",
	title = "F - Agfa Vista 800 ++",
	type = "Develop",
	value = {
		settings = {
			Blacks2012 = 0,
			BlueHue = -5,
			BlueSaturation = -5,
			CameraProfile = "Agfa Vista 800 - F",
			Clarity2012 = -10,
			Contrast2012 = 0,
			ConvertToGrayscale = false,
			EnableCalibration = true,
			EnableColorAdjustments = true,
			EnableDetail = true,
			EnableEffects = true,
			EnableSplitToning = true,
			GrainAmount = 40,
			GrainFrequency = 85,
			GrainSize = 25,
			GreenHue = 60,
			GreenSaturation = -20,
			Highlights2012 = -40,
			HueAdjustmentAqua = 10,
			HueAdjustmentBlue = -5,
			HueAdjustmentGreen = 0,
			HueAdjustmentMagenta = 0,
			HueAdjustmentOrange = 0,
			HueAdjustmentPurple = 0,
			HueAdjustmentRed = 15,
			HueAdjustmentYellow = 5,
			LuminanceAdjustmentAqua = 15,
			LuminanceAdjustmentBlue = -25,
			LuminanceAdjustmentGreen = 0,
			LuminanceAdjustmentMagenta = 10,
			LuminanceAdjustmentOrange = -8,
			LuminanceAdjustmentPurple = 10,
			LuminanceAdjustmentRed = -25,
			LuminanceAdjustmentYellow = 10,
			ParametricDarks = 0,
			ParametricHighlightSplit = 75,
			ParametricHighlights = 0,
			ParametricLights = 0,
			ParametricMidtoneSplit = 48,
			ParametricShadowSplit = 20,
			ParametricShadows = 0,
			ProcessVersion = "6.7",
			RedHue = 25,
			RedSaturation = 35,
			Saturation = -10,
			SaturationAdjustmentAqua = -50,
			SaturationAdjustmentBlue = -25,
			SaturationAdjustmentGreen = -20,
			SaturationAdjustmentMagenta = -30,
			SaturationAdjustmentOrange = -5,
			SaturationAdjustmentPurple = -45,
			SaturationAdjustmentRed = -20,
			SaturationAdjustmentYellow = -5,
			ShadowTint = -4,
			Shadows2012 = 30,
			SharpenDetail = 25,
			SharpenEdgeMasking = 0,
			SharpenRadius = 1,
			Sharpness = 0,
			SplitToningBalance = 75,
			SplitToningHighlightHue = 0,
			SplitToningHighlightSaturation = 0,
			SplitToningShadowHue = 240,
			SplitToningShadowSaturation = 10,
			ToneCurveName2012 = "Custom",
			ToneCurvePV2012 = {
				0,
				56,
				69,
				75,
				134,
				130,
				192,
				190,
				255,
				237,
			},
			ToneCurvePV2012Blue = {
				0,
				0,
				71,
				53,
				114,
				120,
				169,
				199,
				255,
				255,
			},
			ToneCurvePV2012Green = {
				0,
				0,
				28,
				14,
				80,
				65,
				114,
				120,
				180,
				197,
				255,
				255,
			},
			ToneCurvePV2012Red = {
				0,
				0,
				36,
				11,
				83,
				62,
				117,
				121,
				172,
				195,
				255,
				255,
			},
			Vibrance = 0,
			Whites2012 = -20,
		},
		uuid = "A846DC1D-F968-4B88-91C4-9C1127AD3CB0",
	},
	version = 0,
}
