富士柯达胶片感预设/F - Agfa Vista 400 Cool.lrtemplate
s = {
	id = "6C00CAA9-17B4-4D42-B63C-BB012B96C658",
	internalName = "Agfa Vista 400 Cool",
	title = "F - Agfa Vista 400 Cool",
	type = "Develop",
	value = {
		settings = {
			Blacks2012 = 25,
			BlueHue = -5,
			BlueSaturation = -15,
			CameraProfile = "Agfa Vista 400 - F",
			Clarity2012 = -5,
			Contrast2012 = 0,
			ConvertToGrayscale = false,
			EnableCalibration = true,
			EnableColorAdjustments = true,
			EnableDetail = true,
			EnableEffects = true,
			EnableSplitToning = true,
			GrainAmount = 20,
			GrainFrequency = 65,
			GrainSize = 35,
			GreenHue = 75,
			GreenSaturation = -15,
			Highlights2012 = -40,
			HueAdjustmentAqua = 10,
			HueAdjustmentBlue = -5,
			HueAdjustmentGreen = 20,
			HueAdjustmentMagenta = 30,
			HueAdjustmentOrange = 0,
			HueAdjustmentPurple = 20,
			HueAdjustmentRed = 15,
			HueAdjustmentYellow = 10,
			LuminanceAdjustmentAqua = 15,
			LuminanceAdjustmentBlue = -25,
			LuminanceAdjustmentGreen = 20,
			LuminanceAdjustmentMagenta = 0,
			LuminanceAdjustmentOrange = 2,
			LuminanceAdjustmentPurple = -15,
			LuminanceAdjustmentRed = -15,
			LuminanceAdjustmentYellow = 10,
			ParametricDarks = 0,
			ParametricHighlightSplit = 75,
			ParametricHighlights = 0,
			ParametricLights = 0,
			ParametricMidtoneSplit = 48,
			ParametricShadowSplit = 20,
			ParametricShadows = 0,
			ProcessVersion = "6.7",
			RedHue = 25,
			RedSaturation = 25,
			Saturation = 0,
			SaturationAdjustmentAqua = -35,
			SaturationAdjustmentBlue = -25,
			SaturationAdjustmentGreen = -40,
			SaturationAdjustmentMagenta = -30,
			SaturationAdjustmentOrange = -10,
			SaturationAdjustmentPurple = -45,
			SaturationAdjustmentRed = -15,
			SaturationAdjustmentYellow = -5,
			ShadowTint = -4,
			Shadows2012 = 25,
			SharpenDetail = 25,
			SharpenEdgeMasking = 0,
			SharpenRadius = 1,
			Sharpness = 0,
			SplitToningBalance = 0,
			SplitToningHighlightHue = 0,
			SplitToningHighlightSaturation = 0,
			SplitToningShadowHue = 0,
			SplitToningShadowSaturation = 0,
			ToneCurveName2012 = "Custom",
			ToneCurvePV2012 = {
				0,
				19,
				25,
				28,
				79,
				75,
				133,
				133,
				188,
				189,
				255,
				245,
			},
			ToneCurvePV2012Blue = {
				0,
				0,
				22,
				15,
				112,
				120,
				168,
				201,
				255,
				251,
			},
			ToneCurvePV2012Green = {
				0,
				0,
				33,
				13,
				80,
				65,
				114,
				120,
				177,
				203,
				255,
				255,
			},
			ToneCurvePV2012Red = {
				0,
				0,
				43,
				10,
				117,
				122,
				175,
				198,
				255,
				255,
			},
			Vibrance = 0,
			Whites2012 = -35,
		},
		uuid = "E29C6E40-6A38-4834-BF58-AF4A4C8089E5",
	},
	version = 0,
}
