富士柯达胶片感预设/F - Kodak Ultramax 400 +++.lrtemplate
s = {
	id = "B715E920-DEAC-4EC8-A025-ADDD4173F512",
	internalName = "Kodak UltraMax 400 ++",
	title = "F - Kodak UltraMax 400 +++",
	type = "Develop",
	value = {
		settings = {
			Blacks2012 = 15,
			BlueHue = -10,
			BlueSaturation = -12,
			CameraProfile = "Kodak UM 400 - F",
			Clarity2012 = -15,
			Contrast2012 = 0,
			ConvertToGrayscale = false,
			EnableCalibration = true,
			EnableColorAdjustments = true,
			EnableDetail = true,
			EnableEffects = true,
			EnableSplitToning = true,
			GrainAmount = 40,
			GrainFrequency = 65,
			GrainSize = 40,
			GreenHue = 35,
			GreenSaturation = -10,
			Highlights2012 = -40,
			HueAdjustmentAqua = 10,
			HueAdjustmentBlue = -5,
			HueAdjustmentGreen = 15,
			HueAdjustmentMagenta = 20,
			HueAdjustmentOrange = 2,
			HueAdjustmentPurple = 20,
			HueAdjustmentRed = 15,
			HueAdjustmentYellow = 10,
			LuminanceAdjustmentAqua = 10,
			LuminanceAdjustmentBlue = -15,
			LuminanceAdjustmentGreen = 0,
			LuminanceAdjustmentMagenta = 15,
			LuminanceAdjustmentOrange = -5,
			LuminanceAdjustmentPurple = 20,
			LuminanceAdjustmentRed = 0,
			LuminanceAdjustmentYellow = 10,
			ParametricDarks = 0,
			ParametricHighlightSplit = 75,
			ParametricHighlights = 0,
			ParametricLights = 0,
			ParametricMidtoneSplit = 48,
			ParametricShadowSplit = 20,
			ParametricShadows = 0,
			ProcessVersion = "6.7",
			RedHue = 30,
			RedSaturation = 40,
			Saturation = -10,
			SaturationAdjustmentAqua = 0,
			SaturationAdjustmentBlue = -15,
			SaturationAdjustmentGreen = -35,
			SaturationAdjustmentMagenta = -35,
			SaturationAdjustmentOrange = -25,
			SaturationAdjustmentPurple = -35,
			SaturationAdjustmentRed = -20,
			SaturationAdjustmentYellow = -15,
			ShadowTint = -2,
			Shadows2012 = 25,
			SharpenDetail = 25,
			SharpenEdgeMasking = 0,
			SharpenRadius = 1,
			Sharpness = 0,
			SplitToningBalance = 0,
			SplitToningHighlightHue = 0,
			SplitToningHighlightSaturation = 0,
			SplitToningShadowHue = 0,
			SplitToningShadowSaturation = 0,
			ToneCurveName2012 = "Custom",
			ToneCurvePV2012 = {
				0,
				64,
				76,
				81,
				134,
				133,
				194,
				182,
				255,
				245,
			},
			ToneCurvePV2012Blue = {
				0,
				0,
				32,
				19,
				78,
				66,
				113,
				117,
				174,
				198,
				255,
				255,
			},
			ToneCurvePV2012Green = {
				0,
				0,
				32,
				17,
				79,
				65,
				115,
				119,
				177,
				204,
				255,
				255,
			},
			ToneCurvePV2012Red = {
				0,
				0,
				27,
				11,
				81,
				64,
				116,
				122,
				175,
				201,
				255,
				255,
			},
			Vibrance = 0,
			Whites2012 = -30,
		},
		uuid = "DC9D9B13-1159-4CEE-8D27-3B8A13841E71",
	},
	version = 0,
}
